#ifndef USERPREFS_HAS_SPLASH
// OSHI Mesh boot logo, generated from the OSHI app icon.
#define icon_width 50
#define icon_height 20
static uint8_t icon_bits[] = {
  0x00, 0x00, 0xE0, 0x0F, 0x00, 0x00, 0x00, 0x00, 0x00, 0xF8, 0x3F, 0x00,
  0x00, 0x00, 0x00, 0x00, 0xFC, 0x7F, 0x00, 0x00, 0x00, 0x00, 0x00, 0xFE,
  0xFF, 0x00, 0x00, 0x00, 0x00, 0x00, 0xFF, 0xFE, 0x01, 0x00, 0x00, 0x00,
  0x00, 0x1F, 0xF0, 0x01, 0x00, 0x00, 0x00, 0x80, 0x0F, 0xE0, 0x03, 0x00,
  0x00, 0x00, 0x80, 0x0F, 0xE0, 0x03, 0x00, 0x00, 0x00, 0x80, 0x07, 0xC0,
  0x03, 0x00, 0x00, 0x00, 0x80, 0x07, 0xC0, 0x03, 0x00, 0x00, 0x00, 0x80,
  0x07, 0xC0, 0x03, 0x00, 0x00, 0x00, 0x80, 0x0F, 0xE0, 0x03, 0x00, 0x00,
  0x00, 0x80, 0x0F, 0xE0, 0x03, 0x00, 0x00, 0x00, 0x00, 0x1F, 0xF0, 0x01,
  0x00, 0x00, 0x00, 0x00, 0x3F, 0xF8, 0x01, 0x00, 0x00, 0x00, 0x00, 0xFE,
  0xFF, 0x00, 0x00, 0x00, 0x00, 0x00, 0xFE, 0x7F, 0x00, 0x00, 0x00, 0x00,
  0x00, 0xF8, 0x3F, 0x00, 0x00, 0x00, 0x00, 0x00, 0xF0, 0x1F, 0x00, 0x00,
  0x00, 0x00, 0x00, 0x00, 0x00, 0x00, 0x00, 0x00
};
#endif
